X: 14739
T: Gan Ainm
R: polka
M: 2/4
K: Gmajor
G/A/|BB BG/B/|dd dB/d/|gg gf/g/|ad dG/A/|
BB BG/B/|dd dB/d/|gg f/g/a/f/|g3||
[K: Dmaj] A|Ad dd|d d2 d|c>d ef|B z cd|
ee AA|ff dd|ce dB|A3 A||
Ad ee|f3 f|g>f e>d|B2 z c/d/|
e>e ee|ee f2|A>A Bc|d2 d2||

